X:356
T:
R:polska
S:Ur von Baumgartens samling, Visby.
O:Gotland, Visby
M:3/4
L:1/16
K:G
D2|GABc d2dg f2g2|e2ed c2e2 =fedc|Bcde =fedc BdBG|AcAF GFGD CB,A,G,|
GABc d2dg f2g2|e2ed c2e2 =fedc|Bcde =fedc BdBG|AcAF F2G2 G2::
D2|G2GB dBGB dBGB|A2AB cAFA cAFA|GFGB dBGB dBGB|A^GAB cAFA cAFA|
GABc d2dg f2g2|e2c2 cege =fedc|Bcde =fedc BdBG|AcAF F2G2 G2:|

